!!!OTL: Schoen Elselein oder das Schwabentoechterlein
!!!ARE: Europa, Mitteleuropa, Deutschland
!!!SCT: A0051
!!!YEM: Copyright 1995, estate of Helmut Schaffrath.
**kern
*ICvox
*Ivox
*M4/2
*k[b-]
*d:
{2a
=1
2b-
2b-
2ccn
2ccn
=2
2dd
2dd
2a}
{2a
=3
2dd
2dd
2dd
2a
=4
1dd
2ccn}
{2a
=5
2b-
2b-
2a
2a
=6
2g
2g
2d}
{2d
=7
2.fn
4g
2a
2b-
=8
2.ccn
4b-
4a
4g
[2ccn
=9
2ccn]
4b-
4a
1g
=10
0fn}
=11
{2.a
4b-
2ccn
2ccn
=12
2g
2fn
2d
2e
=13
1.d}
==
!!!AGN: Romanze, Ballade, Lied
!! Fuenfte Zeile: Refrain. Melodie in: Reutterliedlin 1535 No. 2.
!!!ONB: ESAC (Essen Associative Code) Database: ALTDEU
!!!AMT: simple quadruple
!!!AIN: vox
!!!EED: Helmut Schaffrath
!!!EEV: 1.0
*-
